X:1
T:Little Green Buttons
M:4/4
L:1/8
K:G
 d| ed d2 d/2 B3/2- BG| AG A2 B3 d| e2 d2 d/2 B3/2- BG| A2 d2 G2| Bd|\
 ed d2 d2 BG| AG A2 B2 cd| ed d2 dB AG| A2 d2 G2| z2| ed d2 d/2 B3/2- B2|\
 A2 GA B2 cd| e2 fg d2 Bd| ed BA G2| z2| z e d2 dB AG| A2 A2 B2 d2|\
 ed d2 dB AG| A2 d2 G2 z||
